X:153
T:Shooters Hornpipe TS.153
T:Shuter’s Hp,aka TS.153
M:C
L:1/8
Q:1/2=90
S:Thomas Sands’ MS,1810,Lincolnshire
R:.hornpipe
O:England;Lincolnshire
Z:vmp.Ruairidh Greig, 2011
K:G
“tr.sign added”(3DEF|G2G2G2Bc|dBdB GABG|A2A2A2AB|cBAG GFED|
G2G2G2Bc|sdBdB G2ga|fafd egec|d2d2d2:|
|:FG|A2A2A2Bc|cBAG GFED|d2d2d2ef|gedc BdBd|
e2c2 cege|d2B2B3d|ecdB cAGF|G2G2G2:|]

